packages/kaspersky-hexa-ui-icons/src/iconsSVGs/24/ParentalControl.svg

<svg width="24" height="24" viewBox="0 0 24 24" fill="none" xmlns="http://www.w3.org/2000/svg">
<path fill-rule="evenodd" clip-rule="evenodd" d="M7.97849 4C5.98652 4 4.3717 5.61481 4.3717 7.60678C4.3717 9.59875 5.98652 11.2136 7.97849 11.2136C9.97046 11.2136 11.5853 9.59875 11.5853 7.60678C11.5853 5.61481 9.97046 4 7.97849 4ZM6.3717 7.60678C6.3717 6.71938 7.09108 6 7.97849 6C8.86589 6 9.58527 6.71938 9.58527 7.60678C9.58527 8.49418 8.86589 9.21356 7.97849 9.21356C7.09108 9.21356 6.3717 8.49418 6.3717 7.60678Z" fill="black"/>
<path fill-rule="evenodd" clip-rule="evenodd" d="M14 10C14 8.34315 15.3431 7 17 7C18.6569 7 20 8.34315 20 10C20 11.6569 18.6569 13 17 13C15.3431 13 14 11.6569 14 10ZM17 9C16.4477 9 16 9.44772 16 10C16 10.5523 16.4477 11 17 11C17.5523 11 18 10.5523 18 10C18 9.44772 17.5523 9 17 9Z" fill="black"/>
<path d="M15.4649 20H20C21.1046 20 22 19.1046 22 18V17C22 15.3431 20.6569 14 19 14H15.6586C15.8797 14.6256 16 15.2987 16 16H19C19.5523 16 20 16.4477 20 17V18H16C16 18.7286 15.8052 19.4117 15.4649 20Z" fill="black"/>
<path fill-rule="evenodd" clip-rule="evenodd" d="M2 16C2 13.7909 3.79086 12 6 12H10C12.2091 12 14 13.7909 14 16V18C14 19.1046 13.1046 20 12 20H4C2.89543 20 2 19.1046 2 18V16ZM6 14C4.89543 14 4 14.8954 4 16V18H12V16C12 14.8954 11.1046 14 10 14H6Z" fill="black"/>
</svg>

<svg xmlns="http://www.w3.org/2000/svg" width="24" height="24" fill="none" viewBox="0 0 24 24"><path fill="#000" fill-rule="evenodd" d="M7.9785 4c-1.992 0-3.6068 1.6148-3.6068 3.6068s1.6148 3.6068 3.6068 3.6068 3.6068-1.6148 3.6068-3.6068S9.9705 4 7.9785 4M6.3717 7.6068C6.3717 6.7194 7.0911 6 7.9785 6s1.6068.7194 1.6068 1.6068-.7194 1.6068-1.6068 1.6068-1.6068-.7194-1.6068-1.6068M14 10c0-1.6569 1.3431-3 3-3s3 1.3431 3 3-1.3431 3-3 3-3-1.3431-3-3m3-1c-.5523 0-1 .4477-1 1s.4477 1 1 1 1-.4477 1-1-.4477-1-1-1M2 16c0-2.2091 1.7909-4 4-4h4c2.2091 0 4 1.7909 4 4v2c0 1.1046-.8954 2-2 2H4c-1.1046 0-2-.8954-2-2zm4-2c-1.1046 0-2 .8954-2 2v2h8v-2c0-1.1046-.8954-2-2-2zm9.4649 6H20c1.1046 0 2-.8954 2-2v-1c0-1.6569-1.3431-3-3-3h-3.3414A5.99 5.99 0 0 1 16 16h3c.5523 0 1 .4477 1 1v1h-4a3.98 3.98 0 0 1-.5351 2"/></svg>
